public/assets/imgs/chat-icon.svg

<svg fill="none" height="41" viewBox="0 0 40 41" width="40" xmlns="http://www.w3.org/2000/svg"><path clip-rule="evenodd" d="m10.8586.0100505c.0468-.0066919.0941-.0100505.1414-.0100505h24c1.6658 0 2.8324.608852 3.5657 1.48181.7006.83398.9343 1.82352.9343 2.51819v17c0 1.5259-.6582 2.5761-1.5407 3.2115-.8315.5987-1.7993.7885-2.4593.7885h-4c-.011 0-.0347-.0001-.0886.0396-.0676.0498-.17.1546-.2905.3535-.2458.4058-.4669 1.0337-.6453 1.8264-.353 1.5691-.4756 3.4892-.4756 4.7805 0 .4107-.2512.7797-.6333.9303-.3821.1507-.8175.0523-1.0978-.248l-6.7035-7.1823h-1.0654v5.5c0 1.1259-.4915 1.9261-1.1657 2.4115-.6232.4487-1.3409.5885-1.8343.5885h-6.0076l-4.69978 6.1097c-.26107.3394-.70925.4749-1.11463.337-.40538-.1378-.67799-.5185-.67799-.9467 0-2.1775-.08259-3.769-.18284-4.8036-.02679-.2765-.05434-.5078-.08096-.6964h-1.7362c-1.12592 0-1.92614-.4915-2.411534-1.1657-.448685-.6232-.588466-1.3409-.588466-1.8343v-10.5c0-1.242.424658-2.1526 1.08104-2.7433.62435-.5619 1.37299-.7567 1.91896-.7567h3.5v-11.5c0-1.87075.69316-3.21386 1.61783-4.10683.89632-.865585 1.97197-1.273293 2.74077-1.3831195zm-4.3586 18.9899495h-3.5c-.1207 0-.37206.0552-.58104.2433-.17695.1593-.41896.4987-.41896 1.2567v10.5c0 .1733.06022.4555.21153.6657.11461.1592.31439.3343.78847.3343h2.5c.53468 0 .80756.3876.84944.4471l.00105.0015c.08225.1167.12945.2313.15373.2953.05323.1402.09257.3002.12367.4513.06484.315.12626.7543.17995 1.3084.05497.5673.10374 1.2751.13839 2.1262l3.26117-4.2395c.1893-.2461.4821-.3903.7926-.3903h6.5c.1733 0 .4555-.0602.6657-.2115.1592-.1146.3343-.3144.3343-.7885v-5.5h-6.5c-2.07908 0-3.49842-.7858-4.37706-1.8706-.84433-1.0424-1.12294-2.2769-1.12294-3.1294zm4.579-17c-.4033.07204-1.0382.3165-1.57183.83183-.53367.51537-1.00717 1.33892-1.00717 2.66817v15c0 .4808.17139 1.2463.67706 1.8706.47136.5819 1.30204 1.1294 2.82294 1.1294h10c.2772 0 .5419.115.7311.3177l5.3783 5.7625c.0812-.9255.2133-1.9033.415-2.7997.1966-.8739.4755-1.7461.8859-2.4236.4027-.6647 1.0742-1.3569 2.0897-1.3569h4c.34 0 .8722-.1102 1.2907-.4115.3675-.2646.7093-.7144.7093-1.5885v-17c0-.30533-.1163-.81579-.4657-1.23181-.3167-.37704-.9001-.76819-2.0343-.76819zm.921 7c0-.55228.4477-1 1-1h12.5c.5523 0 1 .44772 1 1 0 .55229-.4477 1-1 1h-12.5c-.5523 0-1-.44771-1-1zm0 6.5c0-.5523.4477-1 1-1h20.5c.5523 0 1 .4477 1 1s-.4477 1-1 1h-20.5c-.5523 0-1-.4477-1-1z" fill="#000" fill-rule="evenodd"/></svg>

<svg width="40" height="41" viewBox="0 0 40 41" fill="none" xmlns="http://www.w3.org/2000/svg">
<path fill-rule="evenodd" clip-rule="evenodd" d="M10.8586 0.0100505C10.9054 0.0033586 10.9527 0 11 0H35C36.6658 0 37.8324 0.608852 38.5657 1.48181C39.2663 2.31579 39.5 3.30533 39.5 4V21C39.5 22.5259 38.8418 23.5761 37.9593 24.2115C37.1278 24.8102 36.16 25 35.5 25H31.5C31.489 25 31.4653 24.9999 31.4114 25.0396C31.3438 25.0894 31.2414 25.1942 31.1209 25.3931C30.8751 25.7989 30.654 26.4268 30.4756 27.2195C30.1226 28.7886 30 30.7087 30 32C30 32.4107 29.7488 32.7797 29.3667 32.9303C28.9846 33.081 28.5492 32.9826 28.2689 32.6823L21.5654 25.5H20.5V31C20.5 32.1259 20.0085 32.9261 19.3343 33.4115C18.7111 33.8602 17.9934 34 17.5 34H11.4924L6.79262 40.1097C6.53155 40.4491 6.08337 40.5846 5.67799 40.4467C5.27261 40.3089 5 39.9282 5 39.5C5 37.3225 4.91741 35.731 4.81716 34.6964C4.79037 34.4199 4.76282 34.1886 4.7362 34H3C1.87408 34 1.07386 33.5085 0.588466 32.8343C0.139781 32.2111 0 31.4934 0 31V20.5C0 19.258 0.424658 18.3474 1.08104 17.7567C1.70539 17.1948 2.45403 17 3 17H6.5V5.5C6.5 3.62925 7.19316 2.28614 8.11783 1.39317C9.01415 0.527585 10.0898 0.119877 10.8586 0.0100505ZM6.5 19H3C2.8793 19 2.62794 19.0552 2.41896 19.2433C2.24201 19.4026 2 19.742 2 20.5V31C2 31.1733 2.06022 31.4555 2.21153 31.6657C2.32614 31.8249 2.52592 32 3 32H5.5C6.03468 32 6.30756 32.3876 6.34944 32.4471L6.35049 32.4486C6.43274 32.5653 6.47994 32.6799 6.50422 32.7439C6.55745 32.8841 6.59679 33.0441 6.62789 33.1952C6.69273 33.5102 6.75415 33.9495 6.80784 34.5036C6.86281 35.0709 6.91158 35.7787 6.94623 36.6298L10.2074 32.3903C10.3967 32.1442 10.6895 32 11 32H17.5C17.6733 32 17.9555 31.9398 18.1657 31.7885C18.3249 31.6739 18.5 31.4741 18.5 31V25.5H12C9.92092 25.5 8.50158 24.7142 7.62294 23.6294C6.77861 22.587 6.5 21.3525 6.5 20.5V19ZM11.079 2C10.6757 2.07204 10.0408 2.3165 9.50717 2.83183C8.9735 3.3472 8.5 4.17075 8.5 5.5V20.5C8.5 20.9808 8.67139 21.7463 9.17706 22.3706C9.64842 22.9525 10.4791 23.5 12 23.5H22C22.2772 23.5 22.5419 23.615 22.7311 23.8177L28.1094 29.5802C28.1906 28.6547 28.3227 27.6769 28.5244 26.7805C28.721 25.9066 28.9999 25.0344 29.4103 24.3569C29.813 23.6922 30.4845 23 31.5 23H35.5C35.84 23 36.3722 22.8898 36.7907 22.5885C37.1582 22.3239 37.5 21.8741 37.5 21V4C37.5 3.69467 37.3837 3.18421 37.0343 2.76819C36.7176 2.39115 36.1342 2 35 2H11.079ZM12 9C12 8.44772 12.4477 8 13 8H25.5C26.0523 8 26.5 8.44772 26.5 9C26.5 9.55229 26.0523 10 25.5 10H13C12.4477 10 12 9.55229 12 9ZM12 15.5C12 14.9477 12.4477 14.5 13 14.5H33.5C34.0523 14.5 34.5 14.9477 34.5 15.5C34.5 16.0523 34.0523 16.5 33.5 16.5H13C12.4477 16.5 12 16.0523 12 15.5Z" fill="black"/>
</svg>
